X:1
T:Slav Ho!
M:6/8
L:1/8
K:F
 C/2C/2|C-F F F3/2 F/2 G|A-G F G2 c| A3- A2 C/2C/2|C-F F F3/2 F/2 G|\
 AGF G2 c| A3- A2A/2-B/2| c3/2 d/2 c c3/2 B/2 A|B-c B B2 A/2G/2| A2 Ac B3/2 A/2|\
 G2 G c2 c| A2 A GFG| A3/2 B/2 A GFG| F3- F2||
